X:1
T:Star in the East
T:A minor            Arranged by John H. Hickok, 1832 Arranged by William Walker, 1835
T:Comparison of four editions (        = different from Walker 1835)
%%score [ 1 2 3 4 ]
L:1/8
Q:1/4=140
M:4/4
K:C
V:1 treble nm="A" snm="A"
V:2 treble nm="B" snm="B"
V:3 treble nm="C" snm="C"
V:4 treble nm="D" snm="D"
V:1
 z8 | z8 | z8 |"^Red" z8 | z8 | z8 | z8 | z8 :| z8 | z8 | z8 | z8 | z8 | z8 | z8 | z8 | z8 | z8 | %18
 z8 | z8 | z8 | z8 | z8 | z8 |]"^Alto" z8 | z8 | z8 | z8 | z8 | z8 | z8 | z8 :| z8 | z8 | z8 | z8 | %36
 z8 | z8 | z8 | z8 | z8 | z8 | z8 | z8 | z8 | z8 | z8 | z8 |][K:treble-8] A4 B2 B2 | A4 E2 E2 | %50
 G4 G2 A2 | TG4 E4 | A4 c2 A2 | B4 E2 D2 | E4 G2 B2 | A8 :| A4 c2 d2 | e4 d2 c2 | d4 e2 c2 | %59
 TB4 ^G4 | A4 c2 d2 | e4 d2 c2 | d4 e2 c2 | B8 | A4 B2 B2 | A4 E2 E2 | G4 G2 A2 | TG4 E4 | %68
 A4 c2 A2 | B4 E2 D2 | E4 G2 B2 | A8 |][K:bass] A,4 E,2 E,2 | A,,4 E,2 E,2 | C,4 C,2 D,2 | %75
 E,4 E,4 | A,4 E,2 E,2 | E,4 C,2 D,2 | E,4 E,2 E,2 | A,,8 | A,4 A,2 B,2 | C4 B,2 A,2 | %82
 G,4 C,2 D,2 | E,4 E,4 | A,4 A,2 B,2 | C4 G,2 A,2 | D,4 E,2 E,2 | E,8 | A,4 E,2 E,2 | %89
 A,,4 E,2 E,2 | C,4 C,2 D,2 | E,4 E,4 | A,4 E,2 E,2 | E,4 C,2 D,2 | E,4 E,2 E,2 | A,,8 |] %96
V:2
"^Treble" A4 e2 e2 | e4 A2 A2 | c4 c2 e2 | (B2 A2) B4 | d4 c2 d2 | e4 e2 f2 | e4 B2 B2 | A8 :| %8
 e4 c2 A2 | B4 G2 G2 | (d3 e) d2 B2 | e4 e4 | d4 c2 A2 | B4 G2 B2 | d4 d2 f2 | e8 | A4 c2 c2 | %17
 d4 e2 e2 | c4 c2 A2 | (G2 A2) B4 | A4 c2 d2 | e4 e2 f2 | e4 B2 B2 | A8 |][K:treble] z8 | z8 | z8 | %27
 z8 | z8 | z8 | z8 | z8 :| z8 | z8 | z8 | z8 | z8 | z8 | z8 | z8 | z8 | z8 | z8 | z8 | z8 | z8 | %46
 z8 | z8 |][K:treble-8][K:treble-8]"^Tenor" A4 A2 B2 | A4 E2 E2 | G4 G2 A2 | (G2 F2) E4 | %52
 A4 c2 A2 | B4 E2 D2 | E4 G2 G2 | A8 :| A4 c2 d2 | e4 d2 c2 | (d3 c) d2 e2 | c4 A4 | A4 c2 d2 | %61
 e4 d2 c2 | (d3 c) d2 c2 | B8 | e4 e2 c2 | A4 E2 E2 | G4 G2 A2 | (G2 F2) E4 | A4 c2 A2 | B4 E2 D2 | %70
 E4 G2 G2 | A8 |][K:bass]"^Bass" A,4 A,2 E,2 | A,,4 A,,2 A,,2 | C,4 C,2 A,,2 | E,4 E,4 | %76
 D,4 C,2 A,,2 | E,4 E,2 F,2 | E,4 E,2 E,2 | A,,8 | A,4 G,2 G,2 | E,4 G,2 G,2 | G,4 G,2 E,2 | %83
 A,4 A,4 | A,4 G,2 G,2 | E,4 G,2 E,2 | D,4 D,2 F,2 | E,8 | A,4 A,2 A,2 | A,4 A,,2 A,,2 | %90
 C,4 C,2 A,,2 | E,4 E,4 | D,4 C,2 A,,2 | E,4 E,2 F,2 | E,4 E,2 E,2 | A,,8 |] %96
V:3
 A4 c2 d2 | e4 d2 c2 | B4 c2 d2 | B4 B4 | A4 c2 d2 | e4 e2 f2 | e4 B2 G2 | A8 :| A4 e2 d2 | %9
 c4 B2 A2 | B4 G2 E2 | A4 A4 | A4 e2 d2 | c4 B2 A2 | B4 A2 c2 | B8 | A4 c2 d2 | e4 d2 c2 | %18
 B4 c2 d2 | B4 B4 | A4 c2 d2 | e4 e2 f2 | e4 B2 G2 | A8 |][K:treble] c4 c2 B2 | c4 G2 G2 | %26
 E4 E2 E2 | G4 G4 | c4 A2 A2 | G4 c2 A2 | G4 G2 E2 | A8 :|[K:treble] c4 A2 G2 | A4 G2 E2 | %34
 G4 B2 B2 | E4 D4 | E4 E2 G2 | G4 G2 E2 | G4 c2 A2 | G8 | c4 c2 B2 | c4 G2 G2 | E4 E2 E2 | G4 G4 | %44
 c4 A2 A2 | G4 c2 A2 | G4 G2 E2 | A8 |][K:treble-8] A4 A2 B2 | A4 E2 E2 | G4 G2 A2 | G4 E4 | %52
 A4 c2 A2 | B4 E2 D2 | E4 G2 B2 | A8 :| A4 c2 d2 | e4 d2 c2 | (d3 c) d2 e2 | c4 A4 | A4 c2 d2 | %61
 e4 d2 c2 | d4 e2 c2 | B8 |[K:treble-8] A4 A2 B2 | A4 E2 E2 | G4 G2 A2 | G4 E4 | A4 c2 A2 | %69
 B4 E2 D2 | E4 G2 B2 | A8 |][K:bass] A,4 A,2 G,2 | A,4 B,2 G,2 | E,4 C,2 D,2 | E,4 E,4 | %76
 A,,4 C,2 D,2 | E,4 G,2 A,2 | E,4 E,2 E,2 | A,,8 | A,4 C2 B,2 | A,4 G,2 A,2 | G,4 G,2 G,2 | %83
 A,4 A,,4 | A,4 C2 B,2 | A,4 G,2 A,2 | G,4 A,2 F,2 | E,8 | A,4 A,2 G,2 | A,4 B,2 G,2 | %90
 E,4 C,2 D,2 | E,4 E,4 | A,,4 C,2 D,2 | E,4 G,2 A,2 | E,4 E,2 E,2 | A,,8 |] %96
V:4
 A4 e2 e2 | e4 A2 A2 | c4 c2 e2 | (B2 A2) B4 | d4 c2 d2 | e4 e2 f2 | e4 B2 B2 | A8 :| e4 c2 A2 | %9
 B4 G2 G2 | (d3 e) d2 B2 | e4 e4 | d4 c2 A2 | B4 G2 B2 | d4 d2 f2 | e8 |[K:treble] A4 c2 c2 | %17
 d4 e2 e2 | d4 d2 A2 | (G2 A2) B4 | A4 c2 d2 | e4 e2 f2 | e4 B2 B2 | A8 |] %24
[K:treble][K:treble] E4 E2 E2 | E4 C2 C2 | E4 E2 E2 | (G2 A2) G4 | D4 E2 D2 | E4 G2 A2 | A4 G2 G2 | %31
 E8 :|[K:treble] E4 E2 E2 | G4 G2 E2 | D4 D2 G2 | E4 E4 | D4 E2 E2 | G4 G2 G2 | G4 G2 A2 | G8 | %40
 E4 E2 E2 | D4 C2 C2 | E4 E2 E2 | (G2 A2) G4 | D4 E2 D2 | E4 G2 A2 | G4 G2 G2 | E8 |] %48
[K:treble-8][K:treble-8] A4 A2 B2 | A4 E2 E2 | G4 G2 A2 | (G2 F2) E4 | A4 c2 A2 | B4 E2 D2 | %54
 E4 G2 G2 | A8 :| A4 c2 d2 | e4 d2 c2 | (d3 c) d2 e2 | c4 A4 | A4 c2 d2 | e4 d2 c2 | (d3 c) d2 c2 | %63
 B8 |[K:treble-8] e4 e2 c2 | A4 E2 E2 | G4 G2 A2 | (G2 F2) E4 | A4 c2 A2 | B4 E2 D2 | E4 G2 G2 | %71
 A8 |][K:bass] A,4 A,2 E,2 | A,,4 A,,2 A,,2 | C,4 C,2 A,,2 | E,4 E,4 | D,4 C,2 A,,2 | E,4 E,2 F,2 | %78
 E,4 E,2 E,2 | A,,8 | A,4 G,2 G,2 | E,4 G,2 G,2 | G,4 G,2 E,2 | [A,,A,]4 [A,,A,]4 | %84
"_________________________________________________________________________________________\nA.  J. H. Hickok, Compiler, \nThe Sacred Harp\n, Lewistown, Pennsylvania, 1832, p. 140. Two parts (TB), 4:4, A minor. Measures 17-24 repeat of 1-8.\nB.  William Walker, Arranger, in \nSouthern Harmony\n 1835, p. 16. Three parts, 4:4, A minor. Measures 17-24 written.\nC.  William Hauser, Arranger, in \nThe Hesperian Harp\n, 1848. Four parts, 2:4, A minor. Measures 17-24 repeat of 1-8.\nD. William Walker, Arranger, in Christian Harmony, 1867. Four parts, 4:4, A minor. Measures 17-24 written." A,4 G,2 G,2 | %85
 E,4 G,2 E,2 | D,4 D,2 F,2 | E,8 | [A,,A,]4 [A,,A,]2 [A,,A,]2 | A,4 A,,2 A,,2 | C,4 C,2 A,,2 | %91
 E,4 E,4 | D,4 C,2 A,,2 | E,4 E,2 F,2 | E,4 E,2 E,2 | A,,8 |] %96

